modules/hawcons-stroke/icons/icon-24-key.svg

<?xml version="1.0" encoding="UTF-8" standalone="no"?>
<svg width="32px" height="32px" viewBox="0 0 32 32" version="1.1" xmlns="http://www.w3.org/2000/svg" xmlns:xlink="http://www.w3.org/1999/xlink" xmlns:sketch="http://www.bohemiancoding.com/sketch/ns">
    <!-- Generator: Sketch 3.0.3 (7891) - http://www.bohemiancoding.com/sketch -->
    <title>icon 24 key</title>
    <desc>Created with Sketch.</desc>
    <defs></defs>
    <g id="Page-1" stroke="none" stroke-width="1" fill="none" fill-rule="evenodd" sketch:type="MSPage">
        <g id="icon-24-key" sketch:type="MSArtboardGroup" fill="#929292">
            <path d="M18.5324038,19.4675962 L14,24 L11,24 L11,27 L8,27 L8,30 L3,30 L3,25 L13.5324038,14.4675962 C13.1881566,13.5437212 13,12.5438338 13,11.5 C13,6.80557939 16.8055794,3 21.5,3 C26.1944206,3 30,6.80557939 30,11.5 C30,16.1944206 26.1944206,20 21.5,20 C20.4561662,20 19.4562788,19.8118434 18.5324038,19.4675962 L18.5324038,19.4675962 L18.5324038,19.4675962 Z M13.9987625,15.5012375 L4,25.5 L4,29 L7,29 L7,26 L10,26 L10,23 L13.5,23 L17.4987625,19.0012375 C16.0139957,18.2075914 14.7924086,16.9860043 13.9987625,15.5012375 L13.9987625,15.5012375 L13.9987625,15.5012375 Z M29,11.5 C29,7.35786417 25.6421358,4 21.5,4 C17.3578642,4 14,7.35786417 14,11.5 C14,15.6421358 17.3578642,19 21.5,19 C25.6421358,19 29,15.6421358 29,11.5 L29,11.5 L29,11.5 Z M27,9 C27,7.34314567 25.6568543,6 24,6 C22.3431457,6 21,7.34314567 21,9 C21,10.6568543 22.3431457,12 24,12 C25.6568543,12 27,10.6568543 27,9 L27,9 L27,9 Z M26,9 C26,7.89543045 25.1045696,7 24,7 C22.8954304,7 22,7.89543045 22,9 C22,10.1045696 22.8954304,11 24,11 C25.1045696,11 26,10.1045696 26,9 L26,9 L26,9 Z" id="key" sketch:type="MSShapeGroup"></path>
        </g>
    </g>
</svg>

<svg width="32" height="32" viewBox="0 0 32 32" xmlns="http://www.w3.org/2000/svg"><path d="M18.532 19.468L14 24h-3v3H8v3H3v-5l10.532-10.532a8.5 8.5 0 1 1 5 5zM14 15.5L4 25.5V29h3v-3h3v-3h3.5l3.999-3.999a8.539 8.539 0 0 1-3.5-3.5zM29 11.5a7.5 7.5 0 1 0-15 0 7.5 7.5 0 0 0 15 0zM27 9a3 3 0 1 0-6 0 3 3 0 0 0 6 0zm-1 0a2 2 0 1 0-4 0 2 2 0 0 0 4 0z" fill="#929292" fill-rule="evenodd"/></svg>
